X: 323
T: 324. Jesu, meine Freude
N: Derived from chor324.krn
C: Johann Sebastian Bach
%%abc-version 2.0
%%abcx-abcm2ps-target-version 5.9.1 (29 Sep 2008)
%%abc-creator hum2abc beta
%%abcx-conversion-date 2019/03/11 17:28:19
%%abc-edited-by Craig Stuart Sapp
%%humdrum-veritas 2763353005
%%humdrum-veritas-data 2729628376
%%
%%barnumbers 0
L: 1/4
M: C
%%staves [1 2 3 4]
V: 1 clef=treble
V: 2 clef=treble
V: 3 clef=treble-8
V: 4 clef=bass
K: G
[V:1] BBAG | 
[V:2] GFE/^D/E | 
[V:3] eBcc/B/ | 
[V:4] E,D,C,/B,,/ A,,/G,,/ | 
[V:1] F2!fermata!E2 | 
[V:2] E^D!fermata!B,2 | 
[V:3] cB/A/!fermata!G2 | 
[V:4] A,,B,,!fermata!E,,2 | 
[V:1] B^cdB | 
[V:2] G/F/EFD | 
[V:3] e/=d/ ^c/B/AG/A/ | 
[V:4] E,A,/G,/F,G,/F,/ | 
[V:1] e2!fermata!^d2 | 
[V:2] GA!fermata!B2 | 
[V:3] Be!fermata!f2 | 
[V:4] E,/G,/C!fermata!B,2 | 
[V:1] egff | 
[V:2] BBcB/A/ | 
[V:3] Bee^d | 
[V:4] G,/F,/E,A,B, | 
[V:1] !fermata!e4 :|]  
[V:2] !fermata!G4 :|]  
[V:3] !fermata!B4 :|]  
[V:4] !fermata!E,4 :|]  
[V:1] BBcB | 
[V:2] GFE=D/G/ | 
[V:3] eB/A/ G/A/B | 
[V:4] E,^D,E,/F,/G, | 
[V:1] AA!fermata!G2 | 
[V:2] GF!fermata!D2 | 
[V:3] ed/c/!fermata!B2 | 
[V:4] ^C,=D,!fermata!G,,2 | 
[V:1] B^cdB | 
[V:2] DGFF | 
[V:3] BB^AB | 
[V:4] G,F,/E,/F,E,/D,/ | 
[V:1] ed/^c/c2 | 
[V:2] GFF3/E/ | 
[V:3] ^ABB^A | 
[V:4] ^C,D,/E,/F,2 | 
[V:1] !fermata!B2BB | 
[V:2] !fermata!^D2EE/=D/ | 
[V:3] !fermata!F2G/=A/B | 
[V:4] !fermata!B,,2E,/F,/ G,/E,/ | 
[V:1] AGF2 | 
[V:2] E/F/ G/E/E^D | 
[V:3] cB^cB/A/ | 
[V:4] C,/D,/ E,/C,/^A,,B,, | 
[V:1] !fermata!E4 |]  
[V:2] !fermata!B,4 |]  
[V:3] !fermata!^G4 |]  
[V:4] !fermata!E,,4 |]  



